X: 855
T: Cronin's Rambles   #2
R: hornpipe
%S: s:4 b:14(4+5+5)
B: Francis O'Neill: "The Dance Music of Ireland" (1907) #855
Z: Frank Nordberg - http://www.musicaviva.com
F: http://www.musicaviva.com/abc/tunes/ireland/oneill-1001/0855/oneill-1001-0855-1.abc
M: C|
L: 1/8
K: A
"^A"[|] E2 |: AGAB cABc | dcdf ed (3efg | aecA [1,3 dfed | cABG EFGE :|
[2,4 dBGB | A2 A2 A2 "^B":: A2 | Aceg aece | gefd efge | aecA dfed |
| cABG EFGB || Aceg aecA | gfdf e2 (3efg | aecA dBGB | A2 A2 A2 :|
